X: 33564
T: Rakes Of Clonmel, The
R: jig
M: 6/8
K: Aminor
B|:cBA GED|EAA A2B|cBc Adc|BGG GBd|
gag ege|dBG Bcd|ecA GED|1 EAA AeB:|2 EAA Aea||
|:aea aed|ceA Aaf|ggg gdc|BGG GAB|
ccc Ddd|edc Bcd|ecA GED|1 EAA Aa/a/a:|2 EAA A2B:|

